blockchains/ethereum/assets/0xC86D054809623432210c107af2e3F619DcFbf652/logo.svg

<svg width="250" height="250" viewBox="0 0 250 250" fill="none" xmlns="http://www.w3.org/2000/svg">
<path fill-rule="evenodd" clip-rule="evenodd" d="M212.9 134.698L179.35 192.798C180.65 195.598 180.9 198.548 179.95 201.548C178.7 205.548 175.5 208.848 171.45 209.948C166.1 211.398 160.8 209.348 157.85 205.098H92.3501C89.2501 209.498 83.7501 211.498 78.2501 209.798C74.2501 208.548 71.1501 205.148 70.1001 201.148C69.3501 198.398 69.5501 195.748 70.6501 193.198L36.8501 134.798C30.7001 133.948 26.0001 128.698 26.0001 122.448C26.0001 115.798 31.2001 110.298 37.8001 109.948L70.5001 53.2984C69.9501 51.7984 69.6001 50.2484 69.6001 48.7484C69.6001 41.8484 75.2001 36.2484 82.1501 36.2484C86.1001 36.2484 89.7501 38.0984 92.1001 41.1984H158C160.35 38.0984 164 36.2484 167.95 36.2484C174.85 36.2484 180.45 41.8984 180.45 48.7484C180.45 50.3984 180.05 52.0984 179.4 53.6484L211.9 109.948C218.3 110.498 223.35 115.948 223.35 122.398C223.4 128.598 218.9 133.748 212.9 134.698ZM245.1 111.898L194.8 24.8484C190.7 17.7484 183.15 13.3984 175 13.3984H74.4001C66.2501 13.3984 58.6501 17.7484 54.5501 24.8484L4.3001 111.898C0.200098 118.998 0.200098 127.698 4.3001 134.798L54.6001 221.848C58.7001 228.948 66.2501 233.298 74.4501 233.298H175C183.2 233.298 190.75 228.948 194.8 221.848L245.1 134.798C249.2 127.698 249.2 118.998 245.1 111.898Z" fill="#21A0B4"/>
<path fill-rule="evenodd" clip-rule="evenodd" d="M201.95 113.753L180.8 77.1531L102 121.303C102 121.403 102 121.453 102 121.553C102 128.453 96.3999 134.103 89.4999 134.103C82.5999 134.103 76.9999 128.503 76.9999 121.553C76.9999 114.653 82.5999 109.053 89.4999 109.053C92.3999 109.053 95.1499 110.053 97.3499 111.853L175.5 67.9531L171.35 60.7531C170.25 61.0531 169.1 61.2531 167.95 61.2531C162.15 61.2531 157.2 57.2531 155.85 51.7031H94.2499C92.8999 57.2531 87.8999 61.2531 82.1499 61.2531C80.8999 61.2531 79.5999 61.0531 78.3999 60.6531L47.6499 113.903C49.8499 116.253 51.0499 119.253 51.0499 122.403C51.0499 125.853 49.6499 129.053 47.1499 131.403L70.6499 172.103L151.2 125.503C151.15 125.153 151.15 124.753 151.15 124.403C151.15 117.503 156.8 111.903 163.65 111.903C170.55 111.903 176.15 117.503 176.15 124.403C176.15 131.303 170.55 136.903 163.65 136.903C161.05 136.903 158.6 136.103 156.5 134.603L75.8499 181.253L78.5499 185.953C79.6999 185.603 80.8999 185.453 82.1499 185.453C87.8499 185.453 92.6999 189.253 94.1999 194.603H155.95C157.7 188.203 164.5 184.003 171.2 185.853L202.5 131.653C199.9 129.303 198.4 125.953 198.4 122.453C198.35 119.153 199.65 116.053 201.95 113.753Z" fill="#21A0B4"/>
</svg>

<svg fill="none" height="250" viewBox="0 0 250 250" width="250" xmlns="http://www.w3.org/2000/svg"><g clip-rule="evenodd" fill="#21a0b4" fill-rule="evenodd"><path d="m212.9 134.698-33.55 58.1c1.3 2.8 1.55 5.75.6 8.75-1.25 4-4.45 7.3-8.5 8.4-5.35 1.45-10.65-.6-13.6-4.85h-65.4999c-3.1 4.4-8.6 6.4-14.1 4.7-4-1.25-7.1-4.65-8.15-8.65-.75-2.75-.55-5.4.55-7.95l-33.8-58.4c-6.15-.85-10.85-6.1-10.85-12.35 0-6.65 5.2-12.15 11.8-12.5l32.7-56.6496c-.55-1.5-.9-3.05-.9-4.55 0-6.9 5.6-12.5 12.55-12.5 3.95 0 7.6 1.85 9.95 4.95h65.8999c2.35-3.1 6-4.95 9.95-4.95 6.9 0 12.5 5.65 12.5 12.5 0 1.65-.4 3.35-1.05 4.9l32.5 56.2996c6.4.55 11.45 6 11.45 12.45.05 6.2-4.45 11.35-10.45 12.3zm32.2-22.8-50.3-87.0496c-4.1-7.1-11.65-11.45-19.8-11.45h-100.5999c-8.15 0-15.75 4.35-19.85 11.45l-50.25 87.0496c-4.100002 7.1-4.100002 15.8 0 22.9l50.3 87.05c4.1 7.1 11.65 11.45 19.85 11.45h100.5499c8.2 0 15.75-4.35 19.8-11.45l50.3-87.05c4.1-7.1 4.1-15.8 0-22.9z"/><path d="m201.95 113.753-21.15-36.5999-78.8 44.1499v.25c0 6.9-5.6001 12.55-12.5001 12.55s-12.5-5.6-12.5-12.55c0-6.9 5.6-12.5 12.5-12.5 2.9 0 5.65 1 7.85 2.8l78.1501-43.8999-4.15-7.2c-1.1.3-2.25.5-3.4.5-5.8 0-10.75-4-12.1-9.55h-61.6001c-1.35 5.55-6.35 9.55-12.1 9.55-1.25 0-2.55-.2-3.75-.6l-30.75 53.2499c2.2 2.35 3.4 5.35 3.4 8.5 0 3.45-1.4 6.65-3.9 9l23.5 40.7 80.5501-46.6c-.05-.35-.05-.75-.05-1.1 0-6.9 5.65-12.5 12.5-12.5 6.9 0 12.5 5.6 12.5 12.5s-5.6 12.5-12.5 12.5c-2.6 0-5.05-.8-7.15-2.3l-80.6501 46.65 2.7 4.7c1.15-.35 2.35-.5 3.6-.5 5.7 0 10.55 3.8 12.05 9.15h61.7501c1.75-6.4 8.55-10.6 15.25-8.75l31.3-54.2c-2.6-2.35-4.1-5.7-4.1-9.2-.05-3.3 1.25-6.4 3.55-8.7z"/></g></svg>
